X:1
T:Title
%%score ( 1 2 ) { ( 3 5 ) | 4 }
L:1/8
Q:1/4=140
M:6/4
K:Ab
V:1 treble nm="Grand Piano, Soprano"
V:2 treble 
V:3 bass nm="Choir Pad, Heaven Holds All to Me"
V:5 bass 
V:4 bass 
V:1
 [Ec]2 [=D_c]2 [E=c]2 [_DB]2 [CA]2 [CB]2 | [DA]2 [DG]2 [DF]2 [DF]2 [CE]4 | %2
w: By~Tillit~Sidney~Teddlie * * * * *||
 [Ec]2 [Ae]2 [Af]2 [Ae]2 [Ac]2 A2 | [GB]12 | [Ac]2 [A_c]2 [A=c]2 [EB]2 [EA]2 [=EB]2 | %5
w: |||
 [FA]2 [EG]2 [DF]2 [DF]2 [CE]4 | [Ec]2 [Ae]2 [Af]2 e2 c2 [EB]2 | [EA]12 | %8
w: |||
 [Ec]2 [DB]2 [CA]2 [CE]4 [DF]2 | [CE]6 [EA]6 | [Ec]2 [Ae]2 [Af]2 [Ae]2 [Ac]2 A2 | [GB]12 | %12
w: ||||
 [Ac]2 [A_c]2 [A=c]2 .[EB]4 _G2 | [FB]2 [FA]2 [FA]2 [DF]2 [CE]4 | %14
w: ||
 [Ec]2 [Ae]2 [Af]2 [Ae]2 [Ac]2 [EB]2 | [EA]12 |] %16
w: ||
V:2
 x12 | x12 | x12 | x12 | x12 | x12 | z6 .A6 | x12 | x12 | x12 | x12 | x12 | z6 z2 [EA]4 | x12 | %14
 x12 | x12 |] %16
V:3
 A,2 A,2 A,2 E,2 E,2 _G,2 | F,2 F,2 A,2 A,2 A,4 | A,2[K:treble] C2 D2 C2 E2 =D2 | E12 | %4
 E2 =D2 E2 _D2 C2 A,2 | D2 D2[K:bass] A,2 A,2 A,4 | A,2 C2[K:treble] D2 C2 E2 D2 | C12 | %8
 A,2 A,2 E,2 A,4 A,2 | A,12[K:treble] | A,2 C2 D2 C2 E2 E2 | E12 | E2 =D2 E2 _D2 C4 | %13
 D2 D2[K:bass] A,2 A,2 A,4 | A,2 C2[K:treble] D2 C2 E2 D2 | C12 |] %16
V:4
 A,,2 A,,2 A,,2 A,,2 A,,2 A,,2 | D,2 D,2 D,2 A,,2 A,,4 | z2 A,2 A,2 A,2 A,2 F,2 | E,12 | %4
 A,,2 A,,2 A,,2 A,,2 A,,2 C,2 | D,2 D,2 D,2 A,,2 A,,4 | z2 A,2 D,2 E,4 E,2 | [A,,A,]12 | %8
 A,,2 A,,2 A,,2 A,,4 A,,2 | A,,12 | z2 A,2 A,2 A,2 A,2 A,2 | E,12 | A,,2 A,,2 A,,2 A,,2 A,,4 | %13
 D,2 D,2 D,2 A,,2 A,,4 | z2 A,2 D,2 E,2 E,2 E,2 | A,,12 |] %16
V:5
 x12 | x12 | x2[K:treble] x10 | x12 | x12 | x4[K:bass] x8 | x4[K:treble] x8 | x12 | x12 | %9
 z2 C,2 E,2[K:treble] C6 | x12 | x12 | x12 | x4[K:bass] x8 | x4[K:treble] x8 | x12 |] %16

